X: 4287
T: Bobby Casey's
R: reel
M: 4/4
K: Dmajor
|:DFAd BdAB|defd edBd|DFAd BdAB|dfgf edBd|
DFAd BdAB|defd efge|faaf gafe|1 defd edBd:|2 defd edBA||
|:d3f eA (3AAA|defd afef|defd e~B3|g~B3 dBAB|
defd edfd|defd edBA|defg afab|1 afea fddA:|2 afea fd d2||

